X: 1
T: Sk\aansk bond dans
M: 3/4
L: 1/16
S: PDF from Jennifer Eklund titled "Ferdinand Ries: Swedish National Airs with Variations, op. 52 (1813)"
K: Dm
|: (agfe) d2(d2 ^c2)(c2 | d2)(d2  e2)(e2 f2)(f2 | agfe)  d2(d2 ^c2)(c2 | A2=B^c  e4 d2)z2 :|
|: f2(fg) a2f2   a2f2   | g2(ga) (b4     g2) z2 | e2(ef) g2e2   g2e2   | f2(fg) (a4 f2)z2 ||
|| (agfe) d2(d2 ^c2)(c2 | d2)(d2  e2)(e2 f2)(f2 | agfe)  d2(d2 ^c2)(c2 | A2=B^c  e4 d2)z2 :|
